;FLAVOR:Marlin
;TIME:7567
;Filament used: 8.7685m
;Layer height: 0.15
;Generated with Cura_SteamEngine 3.4.1
M82 ;absolute extrusion mode
G21 ; set units to millimeters
G90 ; use absolute positioning
M82 ; absolute extrusion mode
G28 W ; home all without mesh bed level
G80 ; mesh bed leveling
M104 S200 ; set extruder temp
M140 S60 ; set bed temp
M190 S60 ; wait for bed temp
M109 S200 ; wait for extruder temp
G92 E0.0 ; reset extruder distance position
G1 Y-3.0 F1000.0 ; go outside print area
G1 X60.0 E9.0 F1000.0 ; intro line
G1 X100.0 E21.5 F1000.0 ; intro line
G92 E0.0 ; reset extruder distance position
M92 Z2510
M92 X80
M92 Y80
G92 E0
G1 F2100 E-0.8
;LAYER_COUNT:283
;LAYER:0
M107
G0 F3600 X75.561 Y74.065 Z0.3
;TYPE:SKIRT
G1 F2100 E0
G1 F1800 X76.12 Y73.559 E0.03762
G1 X80.34 Y70.48 E0.29824
G1 X80.991 Y70.102 E0.33579
G1 X85.756 Y67.969 E0.59625
G1 X86.471 Y67.735 E0.63378
G1 X91.581 Y66.637 E0.89454
G1 X92.329 Y66.557 E0.93207
G1 X97.542 Y66.546 E1.19215
G1 X98.291 Y66.623 E1.22972
G1 X103.408 Y67.699 E1.49059
G1 X104.123 Y67.929 E1.52806
G1 X108.903 Y70.042 E1.78879
G1 X109.557 Y70.418 E1.82643
G1 X113.786 Y73.478 E2.08686
G1 X114.346 Y73.98 E2.12438
G1 X117.852 Y77.856 E2.38512
G1 X118.295 Y78.464 E2.42265
G1 X120.913 Y82.974 E2.68282
G1 X121.221 Y83.661 E2.72038
G1 X122.85 Y88.635 E2.98151
G1 X123.008 Y89.371 E3.01906
G1 X123.564 Y94.557 E3.27928
G1 X123.566 Y95.309 E3.31679
G1 X123.032 Y100.511 E3.57769
G1 X122.877 Y101.248 E3.61526
G1 X121.276 Y106.213 E3.87552
G1 X120.971 Y106.902 E3.91312
G1 X118.367 Y111.434 E4.17388
G1 X117.927 Y112.042 E4.21133
G1 X114.439 Y115.935 E4.4721
G1 X113.88 Y116.441 E4.50972
G1 X109.661 Y119.52 E4.7703
G1 X109.01 Y119.898 E4.80786
G1 X104.244 Y122.031 E5.06836
G1 X103.529 Y122.265 E5.10589
G1 X98.419 Y123.363 E5.36665
G1 X97.671 Y123.443 E5.40418
G1 X92.458 Y123.454 E5.66426
G1 X91.709 Y123.377 E5.70182
G1 X86.592 Y122.301 E5.96269
G1 X85.877 Y122.071 E6.00017
G1 X81.097 Y119.958 E6.2609
G1 X80.443 Y119.582 E6.29854
G1 X76.214 Y116.522 E6.55896
G1 X75.654 Y116.02 E6.59648
G1 X72.148 Y112.144 E6.85723
G1 X71.705 Y111.536 E6.89476
G1 X69.087 Y107.026 E7.15493
G1 X68.779 Y106.339 E7.19249
G1 X67.15 Y101.365 E7.45361
G1 X66.992 Y100.629 E7.49117
G1 X66.436 Y95.443 E7.75138
G1 X66.434 Y94.691 E7.7889
G1 X66.968 Y89.488 E8.04984
G1 X67.123 Y88.751 E8.08742
G1 X68.724 Y83.787 E8.34763
G1 X69.029 Y83.098 E8.38523
G1 X71.633 Y78.566 E8.64599
G1 X72.073 Y77.958 E8.68344
G1 X75.561 Y74.065 E8.94421
G0 F3600 X75.859 Y74.332
G1 F1800 X76.356 Y73.882 E8.97766
G1 X80.576 Y70.803 E9.23828
G1 X81.155 Y70.467 E9.27168
G1 X85.92 Y68.334 E9.53214
G1 X86.555 Y68.126 E9.56547
G1 X91.665 Y67.028 E9.82623
G1 X92.33 Y66.957 E9.8596
G1 X97.543 Y66.946 E10.11968
G1 X98.208 Y67.014 E10.15303
G1 X103.325 Y68.09 E10.4139
G1 X103.961 Y68.295 E10.44723
G1 X108.741 Y70.408 E10.70797
G1 X109.323 Y70.742 E10.74145
G1 X113.552 Y73.802 E11.00187
G1 X114.049 Y74.248 E11.03519
G1 X117.555 Y78.124 E11.29594
G1 X117.95 Y78.664 E11.32931
G1 X120.568 Y83.174 E11.58948
G1 X120.841 Y83.785 E11.62287
G1 X122.47 Y88.759 E11.88399
G1 X122.611 Y89.414 E11.91742
G1 X123.167 Y94.6 E12.17763
G1 X123.168 Y95.268 E12.21096
G1 X122.634 Y100.47 E12.47185
G1 X122.497 Y101.125 E12.50524
G1 X120.896 Y106.09 E12.7655
G1 X120.625 Y106.702 E12.79889
G1 X118.021 Y111.234 E13.05966
G1 X117.629 Y111.775 E13.09299
G1 X114.141 Y115.668 E13.35377
G1 X113.644 Y116.118 E13.38722
G1 X109.425 Y119.197 E13.6478
G1 X108.846 Y119.533 E13.68119
G1 X104.08 Y121.666 E13.9417
G1 X103.445 Y121.874 E13.97503
G1 X98.335 Y122.972 E14.23579
G1 X97.67 Y123.043 E14.26916
G1 X92.457 Y123.054 E14.52924
G1 X91.792 Y122.986 E14.56259
G1 X86.675 Y121.91 E14.82346
G1 X86.039 Y121.705 E14.8568
G1 X81.259 Y119.592 E15.11753
G1 X80.677 Y119.258 E15.15101
G1 X76.448 Y116.198 E15.41143
G1 X75.951 Y115.752 E15.44475
G1 X72.445 Y111.876 E15.7055
G1 X72.05 Y111.336 E15.73888
G1 X69.432 Y106.826 E15.99904
G1 X69.159 Y106.215 E16.03243
G1 X67.53 Y101.241 E16.29355
G1 X67.389 Y100.586 E16.32698
G1 X66.833 Y95.4 E16.58719
G1 X66.832 Y94.732 E16.62052
G1 X67.366 Y89.529 E16.88146
G1 X67.503 Y88.874 E16.91485
G1 X69.104 Y83.91 E17.17506
G1 X69.375 Y83.298 E17.20846
G1 X71.979 Y78.766 E17.46922
G1 X72.371 Y78.225 E17.50256
G1 X75.859 Y74.332 E17.76333
G1 F2100 E16.96333
G0 F3600 X77.733 Y76.027
G0 X78.688 Y76.885
G0 X101.92 Y73.708
;TYPE:WALL-INNER
G1 F2100 E17.76333
G1 F1800 X106.18 Y75.605 E17.99598
G1 X109.984 Y78.371 E18.23063
G1 X113.12 Y81.853 E18.46442
G1 X115.453 Y85.892 E18.69713
G1 X116.893 Y90.329 E18.92986
G1 X117.387 Y95 E19.16419
G1 X116.893 Y99.671 E19.39853
G1 X115.453 Y104.108 E19.63126
G1 X113.12 Y108.147 E19.86397
G1 X109.984 Y111.629 E20.09775
G1 X106.18 Y114.395 E20.3324
G1 X101.92 Y116.292 E20.56505
G1 X97.344 Y117.263 E20.79843
G1 X92.656 Y117.263 E21.03232
G1 X88.08 Y116.292 E21.2657
G1 X83.82 Y114.395 E21.49835
G1 X80.016 Y111.629 E21.733
G1 X76.88 Y108.147 E21.96679
G1 X74.547 Y104.108 E22.19949
G1 X73.107 Y99.671 E22.43222
G1 X72.613 Y95 E22.66656
G1 X73.107 Y90.329 E22.9009
G1 X74.547 Y85.892 E23.13363
G1 X76.88 Y81.853 E23.36633
G1 X80.016 Y78.371 E23.60012
G1 X83.82 Y75.605 E23.83477
G1 X88.08 Y73.708 E24.06742
G1 X92.656 Y72.737 E24.3008
G1 X97.344 Y72.737 E24.53469
G1 X101.92 Y73.708 E24.76807
G0 F3600 X102.044 Y73.326
G1 F1800 X106.383 Y75.258 E25.00503
G1 X110.253 Y78.071 E25.24372
G1 X113.444 Y81.615 E25.48164
G1 X115.82 Y85.729 E25.71866
G1 X117.287 Y90.248 E25.9557
G1 X117.789 Y95 E26.1941
G1 X117.287 Y99.752 E26.43249
G1 X115.82 Y104.271 E26.66953
G1 X113.444 Y108.385 E26.90655
G1 X110.253 Y111.929 E27.14447
G1 X106.383 Y114.742 E27.38316
G1 X102.044 Y116.674 E27.62013
G1 X97.385 Y117.663 E27.85774
G1 X92.615 Y117.663 E28.09572
G1 X87.956 Y116.674 E28.33334
G1 X83.617 Y114.742 E28.5703
G1 X79.747 Y111.929 E28.80899
G1 X76.556 Y108.385 E29.04691
G1 X74.18 Y104.271 E29.28393
G1 X72.713 Y99.752 E29.52097
G1 X72.211 Y95 E29.75937
G1 X72.713 Y90.248 E29.99776
G1 X74.18 Y85.729 E30.2348
G1 X76.556 Y81.615 E30.47182
G1 X79.747 Y78.071 E30.70974
G1 X83.617 Y75.258 E30.94843
G1 X87.956 Y73.326 E31.1854
G1 X92.615 Y72.337 E31.42301
G1 X97.385 Y72.337 E31.66099
G1 X102.044 Y73.326 E31.89861
G0 F3600 X102.168 Y72.944
G1 F1800 X106.586 Y74.911 E32.13988
G1 X110.521 Y77.771 E32.38257
G1 X113.768 Y81.377 E32.62466
G1 X116.187 Y85.566 E32.866
G1 X117.681 Y90.167 E33.10734
G1 X118.191 Y95 E33.3498
G1 X117.681 Y99.833 E33.59226
G1 X116.187 Y104.434 E33.8336
G1 X113.768 Y108.623 E34.07493
G1 X110.521 Y112.229 E34.31702
G1 X106.586 Y115.089 E34.55972
G1 X102.168 Y117.056 E34.80099
G1 X97.426 Y118.063 E35.04284
G1 X92.574 Y118.063 E35.28491
G1 X87.832 Y117.056 E35.52677
G1 X83.414 Y115.089 E35.76804
G1 X79.479 Y112.229 E36.01073
G1 X76.232 Y108.623 E36.25282
G1 X73.813 Y104.434 E36.49416
G1 X72.319 Y99.833 E36.7355
G1 X71.809 Y95 E36.97796
G1 X72.319 Y90.167 E37.22041
G1 X73.813 Y85.566 E37.46176
G1 X76.232 Y81.377 E37.70309
G1 X79.479 Y77.771 E37.94518
G1 X83.414 Y74.911 E38.18787
G1 X87.832 Y72.944 E38.42915
G1 X92.574 Y71.937 E38.671
G1 X97.426 Y71.937 E38.91307
G1 X102.168 Y72.944 E39.15492
G0 F3600 X102.292 Y72.562
G1 F1800 X106.789 Y74.564 E39.40051
G1 X110.789 Y77.471 E39.6472
G1 X114.092 Y81.139 E39.89346
G1 X116.554 Y85.403 E40.13911
G1 X118.075 Y90.086 E40.38476
G1 X118.593 Y95 E40.63128
G1 X118.075 Y99.914 E40.8778
G1 X116.554 Y104.597 E41.12345
G1 X114.092 Y108.861 E41.36909
G1 X110.789 Y112.529 E41.61535
G1 X106.789 Y115.436 E41.86204
G1 X102.292 Y117.438 E42.10763
G1 X97.467 Y118.463 E42.35372
G1 X92.533 Y118.463 E42.59988
G1 X87.708 Y117.438 E42.84597
G1 X83.211 Y115.436 E43.09156
G1 X79.211 Y112.529 E43.33825
G1 X75.908 Y108.861 E43.58451
G1 X73.446 Y104.597 E43.83015
G1 X71.925 Y99.914 E44.0758
G1 X71.407 Y95 E44.32232
G1 X71.925 Y90.086 E44.56884
G1 X73.446 Y85.403 E44.81449
G1 X75.908 Y81.139 E45.06014
G1 X79.211 Y77.471 E45.3064
G1 X83.211 Y74.564 E45.55309
G1 X87.708 Y72.562 E45.79868
G1 X92.533 Y71.537 E46.04477
G1 X97.467 Y71.537 E46.29093
G1 X102.292 Y72.562 E46.53702
G0 F3600 X102.416 Y72.18
G1 F1800 X106.992 Y74.217 E46.78691
G1 X111.057 Y77.171 E47.03761
G1 X114.416 Y80.901 E47.28804
G1 X116.921 Y85.24 E47.53799
G1 X118.469 Y90.005 E47.78795
G1 X118.995 Y95 E48.03853
G1 X118.469 Y99.995 E48.28911
G1 X116.921 Y104.76 E48.53907
G1 X114.416 Y109.099 E48.78903
G1 X111.057 Y112.829 E49.03945
G1 X106.992 Y115.783 E49.29015
G1 X102.416 Y117.82 E49.54004
G1 X97.508 Y118.863 E49.79037
G1 X92.492 Y118.863 E50.04062
G1 X87.584 Y117.82 E50.29095
G1 X83.008 Y115.783 E50.54085
G1 X78.943 Y112.829 E50.79154
G1 X75.584 Y109.099 E51.04197
G1 X73.079 Y104.76 E51.29193
G1 X71.531 Y99.995 E51.54189
G1 X71.005 Y95 E51.79247
G1 X71.531 Y90.005 E52.04305
G1 X73.079 Y85.24 E52.293
G1 X75.584 Y80.901 E52.54296
G1 X78.943 Y77.171 E52.79339
G1 X83.008 Y74.217 E53.04408
G1 X87.584 Y72.18 E53.29398
G1 X92.492 Y71.137 E53.54431
G1 X97.508 Y71.137 E53.79456
G1 X102.416 Y72.18 E54.04489
G0 F3600 X102.54 Y71.798
G1 F1800 X107.195 Y73.87 E54.29909
G1 X111.325 Y76.871 E54.55379
G1 X114.74 Y80.663 E54.80839
G1 X117.288 Y85.077 E55.06266
G1 X118.863 Y89.924 E55.31692
G1 X119.397 Y95 E55.57156
G1 X118.863 Y100.076 E55.8262
G1 X117.288 Y104.923 E56.08047
G1 X114.74 Y109.337 E56.33474
G1 X111.325 Y113.129 E56.58933
G1 X107.195 Y116.13 E56.84403
G1 X102.54 Y118.202 E57.09824
G1 X97.549 Y119.263 E57.3528
G1 X92.451 Y119.263 E57.60714
G1 X87.46 Y118.202 E57.86171
G1 X82.805 Y116.13 E58.11592
G1 X78.675 Y113.129 E58.37061
G1 X75.26 Y109.337 E58.62521
G1 X72.712 Y104.923 E58.87948
G1 X71.137 Y100.076 E59.13375
G1 X70.603 Y95 E59.38839
G1 X71.137 Y89.924 E59.64303
G1 X72.712 Y85.077 E59.89729
G1 X75.26 Y80.663 E60.15156
G1 X78.675 Y76.871 E60.40616
G1 X82.805 Y73.87 E60.66085
G1 X87.46 Y71.798 E60.91506
G1 X92.451 Y70.737 E61.16963
G1 X97.549 Y70.737 E61.42397
G1 X102.54 Y71.798 E61.67853
G0 F3600 X102.664 Y71.416
;TYPE:WALL-OUTER
G1 F1800 X107.398 Y73.523 E61.93705
G1 X111.593 Y76.571 E62.19575
G1 X115.064 Y80.425 E62.45451
G1 X117.655 Y84.914 E62.7131
G1 X119.257 Y89.843 E62.97167
G1 X119.799 Y95 E63.23037
G1 X119.257 Y100.157 E63.48907
G1 X117.655 Y105.086 E63.74764
G1 X115.064 Y109.575 E64.00623
G1 X111.593 Y113.429 E64.26499
G1 X107.398 Y116.477 E64.52369
G1 X102.664 Y118.584 E64.78221
G1 X97.59 Y119.663 E65.04101
G1 X92.41 Y119.663 E65.29944
G1 X87.336 Y118.584 E65.55824
G1 X82.602 Y116.477 E65.81676
G1 X78.407 Y113.429 E66.07546
G1 X74.936 Y109.575 E66.33422
G1 X72.345 Y105.086 E66.59281
G1 X70.743 Y100.157 E66.85138
G1 X70.201 Y95 E67.11008
G1 X70.743 Y89.843 E67.36878
G1 X72.345 Y84.914 E67.62735
G1 X74.936 Y80.425 E67.88594
G1 X78.407 Y76.571 E68.1447
G1 X82.602 Y73.523 E68.4034
G1 X87.336 Y71.416 E68.66192
G1 X92.41 Y70.337 E68.92072
G1 X97.59 Y70.337 E69.17915
G1 X102.664 Y71.416 E69.43796
G0 F3600 X102.846 Y71.497
G0 X102.643 Y71.952
G0 X101.799 Y74.082
;TYPE:SKIN
G1 F1800 X105.982 Y75.944 E69.66639
G1 X109.723 Y78.665 E69.89718
G1 X112.803 Y82.083 E70.12672
G1 X115.094 Y86.052 E70.35535
G1 X116.509 Y90.411 E70.584
G1 X116.995 Y95 E70.81422
G1 X116.509 Y99.589 E71.04445
G1 X115.094 Y103.948 E71.27309
G1 X112.803 Y107.917 E71.50173
G1 X109.723 Y111.335 E71.73127
G1 X105.982 Y114.056 E71.96206
G1 X101.799 Y115.918 E72.19049
G1 X97.301 Y116.873 E72.4199
G1 X92.699 Y116.873 E72.64949
G1 X88.201 Y115.918 E72.8789
G1 X84.018 Y114.056 E73.10733
G1 X80.277 Y111.335 E73.33812
G1 X77.197 Y107.917 E73.56767
G1 X74.906 Y103.948 E73.7963
G1 X73.491 Y99.589 E74.02494
G1 X73.005 Y95 E74.25517
G1 X73.491 Y90.411 E74.4854
G1 X74.906 Y86.052 E74.71404
G1 X77.197 Y82.083 E74.94267
G1 X80.277 Y78.665 E75.17222
G1 X84.018 Y75.944 E75.403
G1 X88.201 Y74.082 E75.63144
G1 X92.699 Y73.127 E75.86085
G1 X97.301 Y73.127 E76.09044
G1 X101.799 Y74.082 E76.31985
G0 F3600 X108.671 Y78.124
G1 F1800 X111.919 Y81.372 E76.54901
G1 X111.989 Y81.442
G0 F3600 X113.319 Y83.338
G1 F1800 X106.596 Y76.615 E77.02336
G1 X106.526 Y76.545
G0 F3600 X105.217 Y75.801
G1 F1800 X114.09 Y84.675 E77.64943
G1 X114.16 Y84.745
G0 F3600 X114.862 Y86.012
G1 F1800 X104.197 Y75.347 E78.4019
G1 X104.127 Y75.277
G0 F3600 X103.178 Y74.894
G1 F1800 X115.176 Y86.892 E79.24843
G1 X115.246 Y86.962
G0 F3600 X115.448 Y87.73
G1 F1800 X102.159 Y74.44 E80.18607
G1 X102.089 Y74.37
G0 F3600 X101.318 Y74.165
G1 F1800 X115.72 Y88.567 E81.20221
G1 X115.79 Y88.637
G0 F3600 X115.993 Y89.405
G1 F1800 X100.6 Y74.012 E82.28827
G1 X100.53 Y73.942
G0 F3600 X99.881 Y73.86
G1 F1800 X116.264 Y90.243 E83.44418
G1 X116.334 Y90.313
G0 F3600 X116.381 Y90.926
G1 F1800 X99.163 Y73.707 E84.65904
G1 X99.093 Y73.637
G0 F3600 X98.445 Y73.555
G1 F1800 X116.449 Y91.559 E85.92932
G1 X116.519 Y91.629
G0 F3600 X116.516 Y92.191
G1 F1800 X97.727 Y73.402 E87.25498
G1 X97.657 Y73.332
G0 F3600 X97.065 Y73.307
G1 F1800 X116.582 Y92.824 E88.63201
G1 X116.652 Y92.894
G0 F3600 X116.649 Y93.456
G1 F1800 X96.5 Y73.307 E90.05363
G1 X96.43 Y73.237
G0 F3600 X95.934 Y73.307
G1 F1800 X116.717 Y94.089 E91.51995
G1 X116.787 Y94.159
G0 F3600 X116.784 Y94.722
G1 F1800 X95.368 Y73.307 E93.03093
G1 X95.298 Y73.237
G0 F3600 X94.803 Y73.307
G1 F1800 X116.783 Y95.287 E94.58174
G1 X116.853 Y95.357
G0 F3600 X116.729 Y95.798
G1 F1800 X94.237 Y73.307 E96.16864
G1 X94.167 Y73.237
G0 F3600 X93.671 Y73.307
G1 F1800 X116.675 Y96.31 E97.79166
G1 X116.745 Y96.38
G0 F3600 X116.621 Y96.822
G1 F1800 X93.106 Y73.307 E99.45077
G1 X93.036 Y73.237
G0 F3600 X92.571 Y73.338
G1 F1800 X116.566 Y97.333 E101.14374
G1 X116.636 Y97.403
G0 F3600 X116.512 Y97.845
G1 F1800 X92.104 Y73.437 E102.86586
G1 X92.034 Y73.367
G0 F3600 X91.638 Y73.536
G1 F1800 X116.458 Y98.356 E104.61704
G1 X116.528 Y98.426
G0 F3600 X116.404 Y98.868
G1 F1800 X91.171 Y73.635 E106.39737
G1 X91.101 Y73.565
G0 F3600 X90.705 Y73.734
G1 F1800 X116.35 Y99.379 E108.20676
G1 X116.42 Y99.449
G0 F3600 X116.24 Y99.835
G1 F1800 X90.238 Y73.833 E110.04134
G1 X90.168 Y73.763
G0 F3600 X89.772 Y73.932
G1 F1800 X116.101 Y100.262 E111.89903
G1 X116.171 Y100.332
G0 F3600 X115.962 Y100.689
G1 F1800 X89.305 Y74.031 E113.77986
G1 X89.235 Y73.961
G0 F3600 X88.838 Y74.13
G1 F1800 X115.824 Y101.116 E115.68387
G1 X115.894 Y101.186
G0 F3600 X115.685 Y101.543
G1 F1800 X88.372 Y74.229 E117.61099
G1 X88.302 Y74.159
G0 F3600 X87.961 Y74.385
G1 F1800 X115.546 Y101.97 E119.55726
G1 X115.616 Y102.04
G0 F3600 X115.407 Y102.396
G1 F1800 X87.57 Y74.56 E121.52127
G1 X87.5 Y74.49
G0 F3600 X87.179 Y74.734
G1 F1800 X115.269 Y102.823 E123.50314
G1 X115.339 Y102.893
G0 F3600 X115.13 Y103.251
G1 F1800 X86.788 Y74.908 E125.50285
G1 X86.718 Y74.838
G0 F3600 X86.396 Y75.082
G1 F1800 X114.991 Y103.678 E127.52042
G1 X115.061 Y103.748
G0 F3600 X114.815 Y104.067
G1 F1800 X86.005 Y75.257 E129.55312
G1 X85.935 Y75.187
G0 F3600 X85.613 Y75.431
G1 F1800 X114.609 Y104.426 E131.59891
G1 X114.679 Y104.496
G0 F3600 X114.402 Y104.785
G1 F1800 X85.222 Y75.605 E133.65772
G1 X85.152 Y75.535
G0 F3600 X84.83 Y75.779
G1 F1800 X114.194 Y105.143 E135.72951
G1 X114.264 Y105.213
G0 F3600 X113.988 Y105.503
G1 F1800 X84.439 Y75.954 E137.81435
G1 X84.369 Y75.884
G0 F3600 X84.058 Y76.139
G1 F1800 X113.781 Y105.861 E139.91143
G1 X113.851 Y105.931
G0 F3600 X113.574 Y106.22
G1 F1800 X83.73 Y76.376 E142.01709
G1 X83.66 Y76.306
G0 F3600 X83.403 Y76.615
G1 F1800 X113.366 Y106.578 E144.13114
G1 X113.436 Y106.648
G0 F3600 X113.16 Y106.937
G1 F1800 X83.075 Y76.853 E146.25376
G1 X83.005 Y76.783
G0 F3600 X82.748 Y77.091
G1 F1800 X112.953 Y107.296 E148.38489
G1 X113.023 Y107.366
G0 F3600 X112.746 Y107.654
G1 F1800 X82.421 Y77.329 E150.52448
G1 X82.351 Y77.259
G0 F3600 X82.092 Y77.567
G1 F1800 X112.504 Y107.978 E152.67018
G1 X112.574 Y108.048
G0 F3600 X112.236 Y108.276
G1 F1800 X81.765 Y77.805 E154.82007
G1 X81.695 Y77.735
G0 F3600 X81.438 Y78.044
G1 F1800 X111.968 Y108.574 E156.97413
G1 X112.038 Y108.644
G0 F3600 X111.699 Y108.871
G1 F1800 X81.11 Y78.282 E159.13235
G1 X81.04 Y78.212
G0 F3600 X80.783 Y78.52
G1 F1800 X111.431 Y109.168 E161.29473
G1 X111.501 Y109.238
G0 F3600 X111.163 Y109.466
G1 F1800 X80.456 Y78.758 E163.46131
G1 X80.386 Y78.688
G0 F3600 X80.176 Y79.045
G1 F1800 X110.895 Y109.764 E165.6287
